!!!OTL: Zdrowas od Angioła
**kern
*staff1
=1-
*clefC3
*k[]
1d
1d
=2
1c
1.A
2c\
1d
=3
0A
!!linebreak:original
=4
1c
1c
=5
2A/
2B/
2c\
2A/
=6
1c
1d
=7
0A
!!linebreak:original
=8
0d
=9
1d
1c
=10
1d
1A
=11
0e
=12
0A
=13
!!linebreak:original
0d
=14
0A
=15
1c
1d
=16
0A
=17
0d
==
*-
!!title: @{OTL}, @{GTL}, ed. @{ENC}
!!!pag:
!!!GTL: Hymnbook D
!!!EFL: 
!!!YEM: Creative Commons CC/BY/NC/SA 4.0
!!!ENC: Marcin Konik
!!!END: 2015-0m-dd
!!!EED: Marcin Konik
!!!EEV: 
!!!ONB: Encoded in vim by Marcin Konik
!!!CharacterEncoding: utf-8
!!!RDF**kern: l=long note in original notation
!!!RDF**kern: i=editorial accidental
!!muse2ps: z14jc180F
!!!COM: Anonim
!!!CDT: [?]
!!!TXO: Polish
!!!ODT: 
!!!GTL: Hymnbook D
!!!ARL: Opactwo św. Wojciecha, Staniątki 
!!!voices:	1
